src/render/svg/dns.svg

<?xml version="1.0" standalone="no"?><!DOCTYPE svg PUBLIC "-//W3C//DTD SVG 1.1//EN" "http://www.w3.org/Graphics/SVG/1.1/DTD/svg11.dtd"><svg t="1693999893323" class="icon" viewBox="0 0 1024 1024" version="1.1" xmlns="http://www.w3.org/2000/svg"  width="512" height="512" xmlns:xlink="http://www.w3.org/1999/xlink"><path d="M571.733333 682.666667h57.6V388.266667h-59.733333v183.466666l-117.333333-181.333333v-2.133333h-59.733334V682.666667h59.733334v-185.6l117.333333 183.466666v2.133334zM200.533333 320c34.133333-55.466667 83.2-100.266667 140.8-130.133333-12.8 36.266667-27.733333 85.333333-38.4 142.933333h96c8.533333-57.6 23.466667-119.466667 44.8-179.2h-4.266666c23.466667-4.266667 46.933333-6.4 72.533333-6.4 25.6 0 49.066667 2.133333 72.533333 8.533333 21.333333 59.733333 34.133333 123.733333 44.8 179.2H725.333333c-10.666667-57.6-25.6-104.533333-38.4-140.8 55.466667 29.866667 102.4 74.666667 136.533334 128 0 4.266667 2.133333 6.4 2.133333 10.666667h121.6C876.8 162.133333 708.266667 42.666667 512 42.666667 313.6 42.666667 145.066667 162.133333 74.666667 332.8h121.6c0-4.266667 2.133333-10.666667 4.266666-12.8zM981.333333 505.6h-177.066666V448h170.666666c-2.133333-21.333333-6.4-42.666667-10.666666-57.6H746.666667v177.066667h177.066666v59.733333H746.666667V682.666667h204.8c19.2-49.066667 25.6-98.133333 27.733333-142.933334v25.6l2.133333-59.733333zM275.2 622.933333V448s-4.266667-59.733333-59.733333-59.733333H59.733333c-17.066667 66.133333-32 181.333333 10.666667 294.4h145.066667c2.133333 0 59.733333 0 59.733333-59.733334z m-57.6 2.133334H100.266667v-179.2h117.333333v179.2zM689.066667 827.733333c10.666667-27.733333 17.066667-57.6 23.466666-83.2H618.666667c-14.933333 68.266667-32 113.066667-36.266667 125.866667-23.466667 4.266667-46.933333 6.4-72.533333 6.4-23.466667 0-44.8-2.133333-66.133334-6.4-2.133333-4.266667-21.333333-49.066667-36.266666-125.866667h-93.866667c6.4 29.866667 14.933333 57.6 25.6 87.466667-42.666667-21.333333-78.933333-53.333333-108.8-87.466667h-128C183.466667 885.333333 334.933333 981.333333 512 981.333333c174.933333 0 328.533333-96 409.6-236.8H789.333333c-27.733333 34.133333-59.733333 61.866667-100.266666 83.2z"  ></path></svg>

<svg xmlns="http://www.w3.org/2000/svg" width="512" height="512" class="icon" viewBox="0 0 1024 1024">
    <path d="M571.73333 682.66667h57.6v-294.4H569.6v183.46666L452.26667 390.4v-2.13333h-59.73334v294.4h59.73334v-185.6L569.6 680.53333v2.13334zM200.53333 320c34.13334-55.46667 83.2-100.26667 140.8-130.13333-12.8 36.26666-27.73333 85.33333-38.4 142.93333h96c8.53334-57.6 23.46667-119.46667 44.8-179.2h-4.26666C462.93333 149.33333 486.4 147.2 512 147.2s49.06667 2.13333 72.53333 8.53333c21.33334 59.73334 34.13334 123.73334 44.8 179.2h96c-10.66666-57.6-25.6-104.53333-38.4-140.8C742.4 224 789.33333 268.8 823.46667 322.13333c0 4.26667 2.13333 6.4 2.13333 10.66667h121.6C876.8 162.13333 708.26667 42.66667 512 42.66667c-198.4 0-366.93333 119.46666-437.33333 290.13333h121.6c0-4.26667 2.13333-10.66667 4.26666-12.8m780.8 185.6H804.26667V448h170.66666c-2.13333-21.33333-6.4-42.66667-10.66666-57.6h-217.6v177.06667h177.06666V627.2H746.66667v55.46667h204.8c19.2-49.06667 25.6-98.13334 27.73333-142.93334v25.6zM275.2 622.93333V448s-4.26667-59.73333-59.73333-59.73333H59.73333C42.66667 454.4 27.73333 569.6 70.4 682.66667h145.06667c2.13333 0 59.73333 0 59.73333-59.73334m-57.6 2.13334H100.26667v-179.2H217.6zm471.46667 202.66666c10.66666-27.73333 17.06666-57.6 23.46666-83.2h-93.86666C603.73333 812.8 586.66667 857.6 582.4 870.4c-23.46667 4.26667-46.93333 6.4-72.53333 6.4-23.46667 0-44.8-2.13333-66.13334-6.4C441.6 866.13333 422.4 821.33333 407.46667 744.53333H313.6C320 774.4 328.53333 802.13333 339.2 832c-42.66667-21.33333-78.93333-53.33333-108.8-87.46667h-128c81.06667 140.8 232.53333 236.8 409.6 236.8 174.93333 0 328.53333-96 409.6-236.8H789.33333C761.6 778.66667 729.6 806.4 689.06667 827.73333"/>
</svg>
